catalog/app/components/Intercom/logo.svg

<svg width="232" height="228" viewBox="0 0 232 228" fill="none" xmlns="http://www.w3.org/2000/svg">
<path d="M198.821 125.463C198.821 127.496 198.02 129.445 196.594 130.882C195.168 132.319 193.235 133.127 191.218 133.127C189.202 133.127 187.268 132.319 185.842 130.882C184.416 129.445 183.615 127.496 183.615 125.463V57.0003C183.615 54.9679 184.416 53.0187 185.842 51.5816C187.268 50.1444 189.202 49.337 191.218 49.337C193.235 49.337 195.168 50.1444 196.594 51.5816C198.02 53.0187 198.821 54.9679 198.821 57.0003V125.463ZM196.182 172.9C195.177 173.913 166.902 197.663 115.064 197.663C63.227 197.663 35.1406 174.04 33.9467 173.026C33.1944 172.387 32.5747 171.604 32.1231 170.723C31.6716 169.841 31.3971 168.879 31.3153 167.89C31.2336 166.902 31.3463 165.907 31.6469 164.962C31.9475 164.018 32.4301 163.142 33.0671 162.386V162.386C34.3793 160.856 36.2386 159.911 38.2396 159.756C40.2406 159.602 42.2209 160.252 43.7487 161.563C44.1886 161.88 69.4475 182.526 115.002 182.526C160.556 182.526 186.003 161.753 186.254 161.563C187.799 160.263 189.786 159.622 191.792 159.776C193.799 159.93 195.667 160.866 196.999 162.386C198.281 163.894 198.921 165.851 198.779 167.831C198.638 169.811 197.727 171.656 196.245 172.963L196.182 172.9ZM31.2449 57.0003C31.3585 54.9615 32.2683 53.0508 33.7754 51.6861C35.2824 50.3213 37.2642 49.6134 39.2876 49.717C41.1633 49.8244 42.9332 50.628 44.2559 51.9729C45.5786 53.3178 46.3604 55.1088 46.4505 57.0003V125.337C46.4505 127.369 45.6495 129.318 44.2237 130.755C42.7979 132.193 40.8641 133 38.8477 133C36.8313 133 34.8975 132.193 33.4717 130.755C32.0459 129.318 31.2449 127.369 31.2449 125.337V57.0003ZM69.3847 41.8004C69.4983 39.7615 70.4081 37.8509 71.9151 36.4862C73.4222 35.1214 75.404 34.4135 77.4273 34.5171C79.3031 34.6245 81.073 35.4281 82.3957 36.773C83.7183 38.1179 84.5001 39.9088 84.5903 41.8004V143.133C84.5903 145.166 83.7893 147.115 82.3635 148.552C80.9377 149.989 79.0039 150.796 76.9875 150.796C74.9711 150.796 73.0373 149.989 71.6115 148.552C70.1857 147.115 69.3847 145.166 69.3847 143.133V41.8004ZM107.713 38.0004C107.713 35.968 108.514 34.0188 109.94 32.5817C111.366 31.1445 113.299 30.3371 115.316 30.3371C117.332 30.3371 119.266 31.1445 120.692 32.5817C122.118 34.0188 122.919 35.968 122.919 38.0004V148.2C122.919 150.232 122.118 152.181 120.692 153.619C119.266 155.056 117.332 155.863 115.316 155.863C113.299 155.863 111.366 155.056 109.94 153.619C108.514 152.181 107.713 150.232 107.713 148.2V38.0004ZM145.413 41.8004C145.413 39.768 146.214 37.8188 147.64 36.3816C149.065 34.9445 150.999 34.1371 153.016 34.1371C155.032 34.1371 156.966 34.9445 158.392 36.3816C159.817 37.8188 160.618 39.768 160.618 41.8004V143.133C160.618 145.166 159.817 147.115 158.392 148.552C156.966 149.989 155.032 150.796 153.016 150.796C150.999 150.796 149.065 149.989 147.64 148.552C146.214 147.115 145.413 145.166 145.413 143.133V41.8004ZM200.895 0.00063243H29.4856C25.7507 -0.024391 22.0476 0.693392 18.5883 2.11288C15.1289 3.53237 11.9814 5.6257 9.32581 8.27299C6.67023 10.9203 4.55877 14.0695 3.11235 17.5405C1.66592 21.0114 0.912928 24.7358 0.896484 28.5005L0.896484 199.5C0.912928 203.264 1.66592 206.989 3.11235 210.46C4.55877 213.93 6.67023 217.08 9.32581 219.727C11.9814 222.374 15.1289 224.468 18.5883 225.887C22.0476 227.307 25.7507 228.024 29.4856 227.999H200.895C204.624 228.024 208.322 227.309 211.777 225.893C215.233 224.478 218.377 222.39 221.032 219.749C223.687 217.109 225.8 213.967 227.25 210.503C228.7 207.04 229.459 203.322 229.484 199.563V199.563V28.5005C229.467 24.7412 228.716 21.022 227.274 17.5552C225.831 14.0884 223.725 10.942 221.076 8.29549C218.428 5.64903 215.287 3.55438 211.835 2.13115C208.383 0.707912 204.687 -0.0160384 200.957 0.00063243V0.00063243" fill="white"/>
</svg>

<svg width="232" height="228" fill="none" xmlns="http://www.w3.org/2000/svg"><path d="M198.821 125.463a7.693 7.693 0 01-2.227 5.419 7.573 7.573 0 01-5.376 2.245 7.575 7.575 0 01-5.376-2.245 7.693 7.693 0 01-2.227-5.419V57c0-2.032.801-3.981 2.227-5.418a7.573 7.573 0 015.376-2.245c2.017 0 3.95.807 5.376 2.245A7.693 7.693 0 01198.821 57v68.463zm-2.639 47.437c-1.005 1.013-29.28 24.763-81.118 24.763-51.837 0-79.923-23.623-81.117-24.637a7.525 7.525 0 01-1.824-2.303 7.588 7.588 0 01.944-8.337 7.587 7.587 0 015.173-2.63 7.567 7.567 0 015.509 1.807c.44.317 25.699 20.963 71.253 20.963s71.001-20.773 71.252-20.963a7.686 7.686 0 0110.745.823 7.573 7.573 0 011.78 5.445 7.56 7.56 0 01-2.534 5.132l-.063-.063zM31.245 57a7.75 7.75 0 012.53-5.314 7.629 7.629 0 015.513-1.969 7.576 7.576 0 014.968 2.256A7.692 7.692 0 0146.45 57v68.337a7.693 7.693 0 01-2.226 5.418A7.57 7.57 0 0138.848 133a7.57 7.57 0 01-5.376-2.245 7.693 7.693 0 01-2.227-5.418V57zm38.14-15.2a7.75 7.75 0 012.53-5.314 7.63 7.63 0 015.512-1.969 7.576 7.576 0 014.969 2.256A7.693 7.693 0 0184.59 41.8v101.333a7.694 7.694 0 01-2.227 5.419 7.573 7.573 0 01-5.376 2.244 7.573 7.573 0 01-5.375-2.244 7.694 7.694 0 01-2.227-5.419V41.8zm38.328-3.8c0-2.032.801-3.981 2.227-5.418a7.572 7.572 0 015.376-2.245c2.016 0 3.95.808 5.376 2.245A7.693 7.693 0 01122.919 38v110.2a7.696 7.696 0 01-2.227 5.419 7.574 7.574 0 01-5.376 2.244 7.572 7.572 0 01-5.376-2.244 7.696 7.696 0 01-2.227-5.419V38zm37.7 3.8c0-2.032.801-3.981 2.227-5.418a7.57 7.57 0 015.376-2.245c2.016 0 3.95.807 5.376 2.245a7.697 7.697 0 012.226 5.418v101.333a7.696 7.696 0 01-2.226 5.419 7.574 7.574 0 01-5.376 2.244 7.57 7.57 0 01-5.376-2.244 7.693 7.693 0 01-2.227-5.419V41.8zM200.895 0H29.485a28.204 28.204 0 00-10.897 2.113 28.382 28.382 0 00-9.262 6.16 28.639 28.639 0 00-6.214 9.268A28.823 28.823 0 00.896 28.5V199.5c.017 3.764.77 7.489 2.216 10.96a28.644 28.644 0 006.214 9.267 28.379 28.379 0 009.262 6.16 28.195 28.195 0 0010.898 2.112h171.409c3.729.025 7.427-.69 10.882-2.106a28.364 28.364 0 009.255-6.144 28.624 28.624 0 006.218-9.246 28.827 28.827 0 002.234-10.94V28.5a28.843 28.843 0 00-2.21-10.945 28.65 28.65 0 00-6.198-9.26 28.374 28.374 0 00-9.241-6.164 28.203 28.203 0 00-10.878-2.13" fill="#fff"/></svg>
